X:152
T:Hoom
Z: id:dc-reel-76
M:C
L:1/8
K:G Major
(3ced|cABc A=cAB|cef gfe|dBG GAB|cdc ABc|dBG FGA|Bee edc|BAG FEF|GEA G2:|!